X: 1
T: Lochanside
M: 3/4
L: 1/8
R: waltz
K: Dmaj
A2|:d>ef2fa|gef2d2|a>fd2d>e|f>d f2e2|
e>dc2ca|fed2A2|e>fg2gB|cA d2 A2:|
d>fa2a>g|f>ga2f2|dAB2g>f|edf2e2|
e>dc2ca|fed2A2|e>fg2gB|1.cA d2 A2:|2.cA d2 d2|
c>B A2 Ac | eg f2 d2 | c>B A2 Ac | e<a f2 eA |
d>f a2 fa | g/>f/e/>d/ c2 B2 | e>f g2 gB | cA d2 d2 :|
